ankihub/gui/web/media/_fa4_icon_dark_theme.svg

<svg width="40" height="40" viewBox="0 0 40 40" fill="none" xmlns="http://www.w3.org/2000/svg">
    <path d="M4 13.5156H7.39917V14.5389H5.19502V15.3198H7.34606V16.3431H5.19502V18.2011H4V13.5156Z"
        fill="white" />
    <path d="M8.06348 13.5156H9.2585V18.2011H8.06348V13.5156Z" fill="white" />
    <path
        d="M11.8878 16.6124H11.2771V18.2011H10.082V13.5156H12.3924C13.4281 13.5156 14.0123 14.2158 14.0123 15.0775C14.0123 15.8853 13.5078 16.3431 13.0829 16.4777L14.0389 18.2011H12.6845L11.8878 16.6124ZM12.2065 14.5389H11.2505V15.5891H12.2065C12.5252 15.5891 12.7907 15.3737 12.7907 15.0505C12.7907 14.7274 12.5252 14.5389 12.2065 14.5389Z"
        fill="white" />
    <path
        d="M14.9686 16.64C15.3138 16.9901 15.8184 17.2593 16.4557 17.2593C16.8541 17.2593 17.1196 17.0709 17.1196 16.8554C17.1196 16.5861 16.8275 16.4784 16.3229 16.3707C15.5528 16.2091 14.4906 16.0207 14.4906 14.9166C14.4906 14.1357 15.1545 13.4355 16.3229 13.4355C17.0665 13.4355 17.7039 13.651 18.2084 14.0818L17.5445 14.9435C17.1462 14.6204 16.6416 14.4588 16.2433 14.4588C15.8449 14.4588 15.6856 14.6204 15.6856 14.8358C15.6856 15.0782 15.9777 15.159 16.4823 15.2667C17.2524 15.4282 18.2881 15.6437 18.2881 16.7208C18.2881 17.6633 17.5976 18.2826 16.3495 18.2826C15.42 18.2826 14.7561 17.9864 14.3047 17.5286L14.9686 16.64Z"
        fill="white" />
    <path d="M19.8803 14.5658H18.5791V13.5156H22.3501V14.5658H21.0488V18.2011H19.8803V14.5658Z"
        fill="white" />
    <path
        d="M27.6618 17.501H25.7497L25.5107 18.2011H24.2095L25.9622 13.5156H27.4493L29.202 18.2011H27.9008L27.6618 17.501ZM26.0418 16.4777H27.3431L26.6792 14.5658L26.0418 16.4777Z"
        fill="white" />
    <path d="M29.5479 13.5156H30.7429V18.2011H29.5479V13.5156Z" fill="white" />
    <path
        d="M31.5664 13.5156H33.505C34.9656 13.5156 36.0013 14.4043 36.0013 15.8584C36.0013 17.3125 34.9656 18.2011 33.505 18.2011H31.5664V13.5156ZM33.505 17.1509C34.3282 17.1509 34.7797 16.5585 34.7797 15.8584C34.7797 15.1313 34.3548 14.5658 33.505 14.5658H32.7614V17.1509H33.505Z"
        fill="white" />
    <path d="M4 20.6553H7.88403V21.9455H5.36548V22.9301H7.82334V24.2203H5.36548V26.563H4V20.6553Z"
        fill="white" />
    <path
        d="M8.53125 24.5952C8.53125 23.5211 9.38499 22.626 10.7969 22.626C12.2089 22.626 13.0626 23.5509 13.0626 24.5952C13.0626 25.6693 12.2089 26.5644 10.7969 26.5644C9.38499 26.5644 8.53125 25.6693 8.53125 24.5952ZM11.7163 24.5952C11.7163 24.088 11.388 23.6703 10.7969 23.6703C10.2059 23.6703 9.91037 24.088 9.91037 24.5952C9.91037 25.1024 10.2387 25.5201 10.7969 25.5201C11.388 25.5201 11.7163 25.1024 11.7163 24.5952Z"
        fill="white" />
    <path
        d="M13.7423 22.7169H15.037V23.2016C15.2959 22.8986 15.8138 22.626 16.2993 22.626V23.8075C16.2346 23.7772 16.1051 23.7772 15.9756 23.7772C15.652 23.7772 15.1988 23.8984 15.0046 24.1408V26.5644H13.71V22.7169H13.7423Z"
        fill="white" />
    <path
        d="M19.8431 24.1263L19.0254 26.5644H17.5604L16.2998 22.626H17.6967L18.3781 25.0328L19.2299 22.626H20.4564L21.3082 25.0328L21.9896 22.626H23.4205L22.1599 26.5644H20.6949L19.8431 24.1263Z"
        fill="white" />
    <path
        d="M26.0305 26.0906C25.7758 26.3572 25.2983 26.5644 24.7889 26.5644C24.184 26.5644 23.4199 26.1795 23.4199 25.3207C23.4199 24.4027 24.184 24.1362 24.7889 24.1362C25.3301 24.1362 25.8076 24.2843 26.0305 24.5804V24.1066C26.0305 23.7809 25.744 23.5736 25.2028 23.5736C24.7889 23.5736 24.375 23.7216 24.0566 23.9585L23.6109 23.2182C24.1203 22.8037 24.8207 22.626 25.4256 22.626C26.3807 22.626 27.304 22.9517 27.304 24.1066V26.446H26.0305V26.0906ZM26.0305 25.1727C25.9032 24.995 25.5848 24.9061 25.3301 24.9061C24.9799 24.9061 24.6934 25.0542 24.6934 25.3503C24.6934 25.6465 24.9799 25.7945 25.3301 25.7945C25.6166 25.7945 25.9032 25.7057 26.0305 25.528V25.1727Z"
        fill="white" />
    <path
        d="M28.6315 22.7169H29.9262V23.2016C30.1851 22.8986 30.703 22.626 31.1885 22.626V23.8075C31.1237 23.7772 30.9943 23.7772 30.8648 23.7772C30.5411 23.7772 30.088 23.8984 29.8938 24.1408V26.5644H28.5991V22.7169H28.6315Z"
        fill="white" />
    <path
        d="M34.3575 25.9656C34.0168 26.3638 33.5739 26.563 33.0969 26.563C32.0407 26.563 31.189 25.7664 31.189 24.3725C31.189 23.0117 32.0067 22.182 33.0969 22.182C33.5739 22.182 34.0168 22.3479 34.3575 22.7794V20.6553H35.7203V26.4302H34.3575V25.9656ZM34.3575 23.7087C34.1872 23.4764 33.8124 23.3436 33.5398 23.3436C32.9947 23.3436 32.5859 23.7419 32.5859 24.3725C32.5859 25.0031 32.9947 25.4013 33.5398 25.4013C33.8465 25.4013 34.1872 25.2354 34.3575 25.0363V23.7087Z"
        fill="white" />
</svg>

<?xml version="1.0" encoding="utf-8"?>
<!-- Generator: Adobe Illustrator 28.0.0, SVG Export Plug-In . SVG Version: 6.00 Build 0)  -->
<svg version="1.1" id="Layer_1" xmlns="http://www.w3.org/2000/svg" xmlns:xlink="http://www.w3.org/1999/xlink" x="0px" y="0px"
	 viewBox="0 0 40 40" style="enable-background:new 0 0 40 40;" xml:space="preserve">
<style type="text/css">
	.st0{fill:#FFFFFF;}
</style>
<path class="st0" d="M4,13.5h3.4v1H5.2v0.8h2.2v1H5.2v1.9H4V13.5z"/>
<path class="st0" d="M8.1,13.5h1.2v4.7H8.1V13.5z"/>
<path class="st0" d="M11.9,16.6h-0.6v1.6h-1.2v-4.7h2.3c1,0,1.6,0.7,1.6,1.6c0,0.8-0.5,1.3-0.9,1.4l1,1.7h-1.4L11.9,16.6z
	 M12.2,14.5h-1v1.1h1c0.3,0,0.6-0.2,0.6-0.5C12.8,14.7,12.5,14.5,12.2,14.5z"/>
<path class="st0" d="M15,16.6c0.3,0.4,0.8,0.6,1.5,0.6c0.4,0,0.7-0.2,0.7-0.4c0-0.3-0.3-0.4-0.8-0.5c-0.8-0.2-1.8-0.4-1.8-1.5
	c0-0.8,0.7-1.5,1.8-1.5c0.7,0,1.4,0.2,1.9,0.6l-0.7,0.9c-0.4-0.3-0.9-0.5-1.3-0.5c-0.4,0-0.6,0.2-0.6,0.4c0,0.2,0.3,0.3,0.8,0.4
	c0.8,0.2,1.8,0.4,1.8,1.5c0,0.9-0.7,1.6-1.9,1.6c-0.9,0-1.6-0.3-2-0.8L15,16.6z"/>
<path class="st0" d="M19.9,14.6h-1.3v-1.1h3.8v1.1H21v3.6h-1.2V14.6z"/>
<path class="st0" d="M27.7,17.5h-1.9l-0.2,0.7h-1.3l1.8-4.7h1.5l1.8,4.7h-1.3L27.7,17.5z M26,16.5h1.3l-0.7-1.9L26,16.5z"/>
<path class="st0" d="M29.5,13.5h1.2v4.7h-1.2V13.5z"/>
<path class="st0" d="M31.6,13.5h1.9c1.5,0,2.5,0.9,2.5,2.3s-1,2.3-2.5,2.3h-1.9V13.5z M33.5,17.2c0.8,0,1.3-0.6,1.3-1.3
	c0-0.7-0.4-1.3-1.3-1.3h-0.7v2.6H33.5z"/>
<path class="st0" d="M4,20.7h3.9v1.3H5.4v1h2.5v1.3H5.4v2.3H4V20.7z"/>
<path class="st0" d="M8.5,24.6c0-1.1,0.9-2,2.3-2c1.4,0,2.3,0.9,2.3,2c0,1.1-0.9,2-2.3,2C9.4,26.6,8.5,25.7,8.5,24.6z M11.7,24.6
	c0-0.5-0.3-0.9-0.9-0.9c-0.6,0-0.9,0.4-0.9,0.9s0.3,0.9,0.9,0.9C11.4,25.5,11.7,25.1,11.7,24.6z"/>
<path class="st0" d="M13.7,22.7H15v0.5c0.3-0.3,0.8-0.6,1.3-0.6v1.2c-0.1,0-0.2,0-0.3,0c-0.3,0-0.8,0.1-1,0.4v2.4h-1.3L13.7,22.7
	L13.7,22.7z"/>
<path class="st0" d="M19.8,24.1L19,26.6h-1.5l-1.3-3.9h1.4l0.7,2.4l0.9-2.4h1.2l0.9,2.4l0.7-2.4h1.4l-1.3,3.9h-1.5L19.8,24.1z"/>
<path class="st0" d="M26,26.1c-0.3,0.3-0.7,0.5-1.2,0.5c-0.6,0-1.4-0.4-1.4-1.2c0-0.9,0.8-1.2,1.4-1.2c0.5,0,1,0.1,1.2,0.4v-0.5
	c0-0.3-0.3-0.5-0.8-0.5c-0.4,0-0.8,0.1-1.1,0.4l-0.4-0.7c0.5-0.4,1.2-0.6,1.8-0.6c1,0,1.9,0.3,1.9,1.5v2.3H26V26.1z M26,25.2
	c-0.1-0.2-0.4-0.3-0.7-0.3c-0.4,0-0.6,0.1-0.6,0.4c0,0.3,0.3,0.4,0.6,0.4c0.3,0,0.6-0.1,0.7-0.3V25.2z"/>
<path class="st0" d="M28.6,22.7h1.3v0.5c0.3-0.3,0.8-0.6,1.3-0.6v1.2c-0.1,0-0.2,0-0.3,0c-0.3,0-0.8,0.1-1,0.4v2.4h-1.3L28.6,22.7
	L28.6,22.7z"/>
<path class="st0" d="M34.4,26c-0.3,0.4-0.8,0.6-1.3,0.6c-1.1,0-1.9-0.8-1.9-2.2c0-1.4,0.8-2.2,1.9-2.2c0.5,0,0.9,0.2,1.3,0.6v-2.1
	h1.4v5.8h-1.4V26z M34.4,23.7c-0.2-0.2-0.5-0.4-0.8-0.4c-0.5,0-1,0.4-1,1s0.4,1,1,1c0.3,0,0.6-0.2,0.8-0.4V23.7z"/>
</svg>
